X:1
T:Title
%%score 1 { 2 | 3 }
L:1/8
Q:1/4=108
M:4/4
K:D
V:1 treble nm="Grand Piano, Soprano"
V:2 bass nm="Choir Pad, Croyland (Latrobe)"
V:3 bass 
V:1
 [DF]2 F2 [DB]2 [DB]2 | [Gc]2 [Fc]2 [Fd]4 | [Fd]2 [DB]2 [EA]2 [DF]2 | [DE]2 [CG]2 [DF]4 | %4
w: By~Christian~Ignatius~Latrobe,~ca.~1795 * * *||||
 [DF]2 F2 [DB]2 [DB]2 | [Gc]2 [Fc]2 [Fd]4 | [Fd]2 [DB]2 [EA]2 [DF]2 | [DE]2 [CG]2 [DF]4 | %8
w: ||||
 [DA]2 [EA]2 [DF]2 [CE]2 | [B,D]2 [B,E]2 [CF]4 | [CG]2 [DF]2 [E^A]2 [FB]2 | [Gc]2 [F^A]2 [FB]4- | %12
w: ||||
 [FB]4 z4 |] %13
w: |
V:2
 B,2 C2 D2 B,2 | B,2 ^A,2 B,4 | B,2 F,2 A,2 A,2 | B,2 A,2 A,4 | B,2 C2 D2 B,2 | B,2 ^A,2 B,4 | %6
 B,2 F,2 A,2 A,2 | B,2 A,2 A,4 | A,2 A,2 A,2 A,2 | F,2 B,2 ^A,4 | ^A,2 B,2[K:treble] C2 D2 | %11
 C2 C2 D4- | D4 z4 |] %13
V:3
 B,,2 A,,2 G,,2 F,,2 | E,,2 F,,2 B,,4 | B,,2 B,,2 C,2 D,2 | G,,2 A,,2 D,4 | B,,2 A,,2 G,,2 F,,2 | %5
 E,,2 F,,2 B,,4 | B,,2 B,,2 C,2 D,2 | G,,2 A,,2 D,4 | F,2 C,2 D,2 A,,2 | B,,A,, G,,2 F,,4 | %10
 E,2 D,2 C,2 B,,2 | E,2 F,2 B,,4- | B,,4 z4 |] %13

